static/images/tech-icons/dark/aws.svg

<svg height="41" viewBox="0 0 68 41" width="68" xmlns="http://www.w3.org/2000/svg"><g><path d="m19.0877483 14.7702899c0 .835628.089404 1.5131642.245861 2.0100241.1788079.4968599.4023178 1.0388889.7152318 1.626087.1117549.1806763.1564569.3613526.1564569.5194444 0 .2258455-.134106.4516909-.4246689.6775363l-1.4081126.9485507c-.2011589.1355072-.4023178.2032609-.5811258.2032609-.2235099 0-.4470199-.1129227-.6705298-.3161836-.3129139-.3387681-.5811258-.7001208-.8046357-1.0614734-.22351-.3839373-.4470199-.8130435-.6928809-1.332488-1.7433774 2.0777778-3.9337748 3.1166667-6.571192 3.1166667-1.87748342 0-3.37499999-.542029-4.47019866-1.626087-1.09519868-1.0840579-1.65397351-2.5294686-1.65397351-4.3362319 0-1.9196859.67052981-3.4780193 2.0339404-4.6524154 1.36341059-1.17439615 3.17384104-1.76159425 5.47599337-1.76159425.7599338 0 1.5422185.06775365 2.3692053.18067635.8269867.1129227 1.6763245.29359905 2.5703643.49685993v-1.64867153c0-1.71642511-.3576159-2.91340579-1.0504968-3.61352656-.7152318-.70012077-1.9221854-1.03888889-3.6432119-1.03888889-.7822847 0-1.58692048.09033816-2.41390723.29359904-.82698678.20326086-1.63162254.45169082-2.41390731.76787439-.35761589.15809178-.62582781.24842995-.78228477.29359903-.15645695.04516909-.26821191.06775363-.35761589.06775363-.3129139 0-.46937086-.22584542-.46937086-.70012078v-1.10664251c0-.36135266.04470198-.63236715.15645696-.79045894.11175496-.15809179.3129139-.31618357.62582781-.47427536.78228477-.40652174 1.72102649-.74528985 2.81622516-1.01630435 1.09519868-.29359903 2.25745033-.42910628 3.48675493-.42910628 2.6597682 0 4.6043047.60978261 5.8559603 1.82934783 1.2293046 1.21956522 1.8551325 3.07149758 1.8551325 5.5557971v7.31739135zm-9.0745033 3.4328502c.7375828 0 1.4975166-.1355073 2.3021523-.4065217.8046358-.2710145 1.5198676-.7678745 2.1233444-1.4454107.3576159-.4291062.6258278-.9033816.7599338-1.4454106.1341059-.542029.2235099-1.1969807.2235099-1.964855v-.9485508c-.6481788-.1580918-1.3410596-.293599-2.0562913-.3839372-.7152318-.0903382-1.4081127-.1355072-2.1009935-.1355072-1.4975165 0-2.59271518.293599-3.33029795.9033816-.73758278.6097826-1.09519868 1.4679952-1.09519868 2.5972222 0 1.0614735.26821192 1.8519324.82698675 2.3939614.53642385.5646135 1.31870865.835628 2.34685428.835628zm17.9478477 2.4391305c-.4023179 0-.6705298-.0677537-.8493378-.2258454-.1788079-.1355073-.3352648-.4516909-.4693708-.8807972l-5.2524835-17.45785022c-.1341059-.45169082-.2011589-.74528986-.2011589-.90338165 0-.36135265.1788079-.56461352.5364238-.56461352h2.1903974c.4246689 0 .7152318.06775362.8716888.22584541.1788079.13550725.3129138.45169082.4470198.8807971l3.7549669 14.95096618 3.486755-14.95096618c.1117549-.45169082.2458609-.74528985.4246689-.8807971.1788079-.13550725.4917218-.22584541.8940396-.22584541h1.7880795c.4246689 0 .7152318.06775362.8940398.22584541.1788079.13550725.3352649.45169082.4246689.8807971l3.5314569 15.13164258 3.8667219-15.13164258c.1341059-.45169082.2905629-.74528985.4470199-.8807971.1788079-.13550725.4693708-.22584541.8716887-.22584541h2.0786424c.3576159 0 .5587748.18067633.5587748.56461352 0 .11292271-.022351.22584542-.044702.36135267-.022351.13550724-.067053.31618357-.1564569.56461352l-5.3865894 17.45785018c-.134106.4516909-.2905629.74529-.4693709.8807972-.1788079.1355072-.4693709.2258454-.8493378.2258454h-1.9221854c-.4246688 0-.7152318-.0677537-.8940398-.2258454-.1788079-.1580918-.3352648-.4516908-.4246688-.9033817l-3.464404-14.56702897-3.442053 14.54444447c-.1117549.4516908-.2458609.7452898-.4246689.9033817-.1788079.1580917-.4917218.2258454-.8940396.2258454zm28.7210265.6097826c-1.1622516 0-2.3245033-.1355073-3.442053-.4065218s-1.9892384-.5646135-2.5703643-.9033816c-.3576158-.2032609-.6034767-.4291063-.6928807-.6323672s-.134106-.4291063-.134106-.6323671v-1.1518116c0-.4742754.1788079-.7001208.5140729-.7001208.134106 0 .2682119.0225846.4023178.0677536.134106.0451691.3352649.1355072.5587749.2258454.7599338.3387682 1.5869205.6097826 2.4586093.790459.8940397.1806763 1.7657284.2710144 2.6597682.2710144 1.4081125 0 2.5033112-.2484299 3.263245-.7452898s1.1622516-1.2195652 1.1622516-2.1455314c0-.6323671-.2011589-1.1518116-.6034767-1.5809179-.402318-.4291062-1.1622517-.8130435-2.2574504-1.1743961l-3.2408941-1.0163044c-1.6316225-.5194444-2.8385761-1.2873188-3.5761589-2.30362317-.7375828-.99371978-1.1175496-2.10036229-1.1175496-3.27475843 0-.94855073.2011589-1.78417874.6034767-2.50688405.402318-.72270532.9387418-1.35507247 1.6092716-1.85193237.6705298-.51944445 1.4304636-.90338165 2.3245033-1.17439614s1.8327815-.3839372 2.8162251-.3839372c.4917219 0 1.0057948.02258454 1.4975166.09033817.5140729.06775362.9834438.15809178 1.4528146.24842995.4470199.1129227.8716887.22584541 1.2740066.36135265.4023179.13550725.7152318.2710145.9387417.40652174.312914.18067633.5364239.36135266.6705298.56461353.134106.18067633.201159.42910628.201159.74528985v1.06147344c0 .47427536-.1788079.72270531-.5140729.72270531-.1788079 0-.4693708-.09033816-.8493377-.27101449-1.2740066-.58719807-2.7044702-.88079711-4.2913907-.88079711-1.2740066 0-2.2798013.20326088-2.9726822.63236715-.6928808.42910629-1.0504966 1.08405798-1.0504966 2.01002416 0 .63236715.2235099 1.17439613.6705298 1.60350242.4470198.42910624 1.2740066.85821259 2.4586092 1.24214974l3.1738411 1.01630438c1.6092715.51944447 2.7715232 1.24214977 3.464404 2.16811587.6928807.9259662 1.0281457 1.9874397 1.0281457 3.1618358 0 .9711353-.201159 1.8519324-.5811258 2.6198068-.402318.7678743-.9387418 1.4454106-1.6316226 1.9874396-.6928808.5646135-1.5198675.9711352-2.4809603 1.2647343-1.0057947.3161836-2.0562913.4742754-3.196192.4742754z"/><g transform="translate(0 25.294686)"><path d="m60.906457 6.93345411c-7.3534769 5.48804349-18.0372517 8.40144929-27.22351 8.40144929-12.8741722 0-24.47433773-4.8105073-33.23592713-12.8054348-.6928808-.63236715-.06705298-1.49057971.75993377-.99371981 9.47682116 5.5557971 21.16639066 8.92089371 33.25827816 8.92089371 8.1581126 0 17.1208609-1.7164251 25.3683775-5.23961351 1.2293046-.56461353 2.2798013.81304347 1.0728477 1.71642512z"/><path d="m63.968543 3.4102657c-.9387417-1.21956522-6.2135761-.58719807-8.6051324-.29359903-.7152318.09033816-.8269868-.54202899-.178808-1.01630435 4.2019868-2.98115943 11.1084438-2.12294686 11.9130795-1.12922705.8046357 1.01630434-.2235099 7.99492753-4.1572848 11.33743963-.6034768.5194444-1.1846026.2484299-.9163907-.4291063.8940398-2.2358696 2.8832782-7.27222222 1.9445364-8.4692029z"/></g></g></svg>

<?xml version="1.0" encoding="UTF-8"?>
<svg width="68px" height="41px" viewBox="0 0 68 41" version="1.1" xmlns="http://www.w3.org/2000/svg" xmlns:xlink="http://www.w3.org/1999/xlink">
    <!-- Generator: Sketch 62 (91390) - https://sketch.com -->
    <title>AWS-white</title>
    <desc>Created with Sketch.</desc>
    <g id="UI-Design-(Teal)" stroke="none" stroke-width="1" fill="none" fill-rule="evenodd">
        <g id="Services-Teal-v1" transform="translate(-1087.000000, -808.000000)" fill="#000" fill-rule="nonzero">
            <g id="tech-logos" transform="translate(264.000000, 790.000000)">
                <g id="AWS-white" transform="translate(823.000000, 18.000000)">
                    <path d="M19.0877483,14.7702899 C19.0877483,15.6059179 19.1771523,16.2834541 19.3336093,16.780314 C19.5124172,17.2771739 19.7359271,17.8192029 20.0488411,18.406401 C20.160596,18.5870773 20.205298,18.7677536 20.205298,18.9258454 C20.205298,19.1516909 20.071192,19.3775363 19.7806291,19.6033817 L18.3725165,20.5519324 C18.1713576,20.6874396 17.9701987,20.7551933 17.7913907,20.7551933 C17.5678808,20.7551933 17.3443708,20.6422706 17.1208609,20.4390097 C16.807947,20.1002416 16.5397351,19.7388889 16.3162252,19.3775363 C16.0927152,18.993599 15.8692053,18.5644928 15.6233443,18.0450483 C13.8799669,20.1228261 11.6895695,21.161715 9.0521523,21.161715 C7.17466888,21.161715 5.67715231,20.619686 4.58195364,19.535628 C3.48675496,18.4515701 2.92798013,17.0061594 2.92798013,15.1993961 C2.92798013,13.2797102 3.59850994,11.7213768 4.96192053,10.5469807 C6.32533112,9.37258455 8.13576157,8.78538645 10.4379139,8.78538645 C11.1978477,8.78538645 11.9801324,8.8531401 12.8071192,8.9660628 C13.6341059,9.0789855 14.4834437,9.25966185 15.3774835,9.46292273 L15.3774835,7.8142512 C15.3774835,6.09782609 15.0198676,4.90084541 14.3269867,4.20072464 C13.6117549,3.50060387 12.4048013,3.16183575 10.6837748,3.16183575 C9.9014901,3.16183575 9.09685432,3.25217391 8.26986757,3.45543479 C7.44288079,3.65869565 6.63824503,3.90712561 5.85596026,4.22330918 C5.49834437,4.38140096 5.23013245,4.47173913 5.07367549,4.51690821 C4.91721854,4.5620773 4.80546358,4.58466184 4.7160596,4.58466184 C4.4031457,4.58466184 4.24668874,4.35881642 4.24668874,3.88454106 L4.24668874,2.77789855 C4.24668874,2.41654589 4.29139072,2.1455314 4.4031457,1.98743961 C4.51490066,1.82934782 4.7160596,1.67125604 5.02897351,1.51316425 C5.81125828,1.10664251 6.75,0.767874398 7.84519867,0.496859903 C8.94039735,0.20326087 10.102649,0.0677536232 11.3319536,0.0677536232 C13.9917218,0.0677536232 15.9362583,0.677536232 17.1879139,1.89710145 C18.4172185,3.11666667 19.0430464,4.96859903 19.0430464,7.45289855 L19.0430464,14.7702899 L19.0877483,14.7702899 Z M10.013245,18.2031401 C10.7508278,18.2031401 11.5107616,18.0676328 12.3153973,17.7966184 C13.1200331,17.5256039 13.8352649,17.0287439 14.4387417,16.3512077 C14.7963576,15.9221015 15.0645695,15.4478261 15.1986755,14.9057971 C15.3327814,14.3637681 15.4221854,13.7088164 15.4221854,12.9409421 L15.4221854,11.9923913 C14.7740066,11.8342995 14.0811258,11.6987923 13.3658941,11.6084541 C12.6506623,11.5181159 11.9577814,11.4729469 11.2649006,11.4729469 C9.7673841,11.4729469 8.67218542,11.7665459 7.93460265,12.3763285 C7.19701987,12.9861111 6.83940397,13.8443237 6.83940397,14.9735507 C6.83940397,16.0350242 7.10761589,16.8254831 7.66639072,17.3675121 C8.20281457,17.9321256 8.98509937,18.2031401 10.013245,18.2031401 Z M27.9610927,20.6422706 C27.5587748,20.6422706 27.2905629,20.5745169 27.1117549,20.4164252 C26.932947,20.2809179 26.7764901,19.9647343 26.6423841,19.535628 L21.3899006,2.07777778 C21.2557947,1.62608696 21.1887417,1.33248792 21.1887417,1.17439613 C21.1887417,0.813043478 21.3675496,0.609782609 21.7251655,0.609782609 L23.9155629,0.609782609 C24.3402318,0.609782609 24.6307947,0.677536232 24.7872517,0.835628018 C24.9660596,0.971135265 25.1001655,1.28731884 25.2342715,1.71642512 L28.9892384,16.6673913 L32.4759934,1.71642512 C32.5877483,1.2647343 32.7218543,0.971135265 32.9006623,0.835628018 C33.0794702,0.700120773 33.3923841,0.609782609 33.7947019,0.609782609 L35.5827814,0.609782609 C36.0074503,0.609782609 36.2980132,0.677536232 36.4768212,0.835628018 C36.6556291,0.971135265 36.8120861,1.28731884 36.9014901,1.71642512 L40.432947,16.8480677 L44.2996689,1.71642512 C44.4337748,1.2647343 44.5902318,0.971135265 44.7466888,0.835628018 C44.9254967,0.700120773 45.2160596,0.609782609 45.6183775,0.609782609 L47.6970199,0.609782609 C48.0546358,0.609782609 48.2557947,0.790458938 48.2557947,1.17439613 C48.2557947,1.28731884 48.2334437,1.40024155 48.2110927,1.5357488 C48.1887417,1.67125604 48.1440397,1.85193237 48.0546358,2.10036232 L42.6680464,19.5582125 C42.5339404,20.0099034 42.3774835,20.3035025 42.1986755,20.4390097 C42.0198676,20.5745169 41.7293046,20.6648551 41.3493377,20.6648551 L39.4271523,20.6648551 C39.0024835,20.6648551 38.7119205,20.5971014 38.5331125,20.4390097 C38.3543046,20.2809179 38.1978477,19.9873189 38.1084437,19.535628 L34.6440397,4.96859903 L31.2019867,19.5130435 C31.0902318,19.9647343 30.9561258,20.2583333 30.7773178,20.4164252 C30.5985099,20.5745169 30.285596,20.6422706 29.8832782,20.6422706 L27.9610927,20.6422706 Z M56.6821192,21.2520532 C55.5198676,21.2520532 54.3576159,21.1165459 53.2400662,20.8455314 C52.1225165,20.5745169 51.2508278,20.2809179 50.6697019,19.9421498 C50.3120861,19.7388889 50.0662252,19.5130435 49.9768212,19.3097826 C49.8874172,19.1065217 49.8427152,18.8806763 49.8427152,18.6774155 L49.8427152,17.5256039 C49.8427152,17.0513285 50.0215231,16.8254831 50.3567881,16.8254831 C50.4908941,16.8254831 50.625,16.8480677 50.7591059,16.8932367 C50.8932119,16.9384058 51.0943708,17.0287439 51.3178808,17.1190821 C52.0778146,17.4578503 52.9048013,17.7288647 53.7764901,17.9095411 C54.6705298,18.0902174 55.5422185,18.1805555 56.4362583,18.1805555 C57.8443708,18.1805555 58.9395695,17.9321256 59.6995033,17.4352657 C60.4594371,16.9384058 60.8617549,16.2157005 60.8617549,15.2897343 C60.8617549,14.6573672 60.660596,14.1379227 60.2582782,13.7088164 C59.8559602,13.2797102 59.0960265,12.8957729 58.0008278,12.5344203 L54.7599337,11.5181159 C53.1283112,10.9986715 51.9213576,10.2307971 51.1837748,9.21449273 C50.446192,8.22077295 50.0662252,7.11413044 50.0662252,5.9397343 C50.0662252,4.99118357 50.2673841,4.15555556 50.6697019,3.43285025 C51.0720199,2.71014493 51.6084437,2.07777778 52.2789735,1.58091788 C52.9495033,1.06147343 53.7094371,0.677536232 54.6034768,0.40652174 C55.4975165,0.135507247 56.4362583,0.0225845411 57.4197019,0.0225845411 C57.9114238,0.0225845411 58.4254967,0.0451690821 58.9172185,0.112922705 C59.4312914,0.180676328 59.9006623,0.271014493 60.3700331,0.361352657 C60.817053,0.474275363 61.2417218,0.587198068 61.6440397,0.722705314 C62.0463576,0.858212558 62.3592715,0.993719805 62.5827814,1.12922705 C62.8956954,1.30990338 63.1192053,1.49057971 63.2533112,1.69384058 C63.3874172,1.87451691 63.4544702,2.12294686 63.4544702,2.43913043 L63.4544702,3.50060387 C63.4544702,3.97487923 63.2756623,4.22330918 62.9403973,4.22330918 C62.7615894,4.22330918 62.4710265,4.13297102 62.0910596,3.95229469 C60.817053,3.36509662 59.3865894,3.07149758 57.7996689,3.07149758 C56.5256623,3.07149758 55.5198676,3.27475846 54.8269867,3.70386473 C54.1341059,4.13297102 53.7764901,4.78792271 53.7764901,5.71388889 C53.7764901,6.34625604 54,6.88828502 54.4470199,7.31739131 C54.8940397,7.74649755 55.7210265,8.1756039 56.9056291,8.55954105 L60.0794702,9.57584543 C61.6887417,10.0952899 62.8509934,10.8179952 63.5438742,11.7439613 C64.2367549,12.6699275 64.5720199,13.731401 64.5720199,14.9057971 C64.5720199,15.8769324 64.3708609,16.7577295 63.9908941,17.5256039 C63.5885761,18.2934782 63.0521523,18.9710145 62.3592715,19.5130435 C61.6663907,20.077657 60.839404,20.4841787 59.8783112,20.7777778 C58.8725165,21.0939614 57.8220199,21.2520532 56.6821192,21.2520532 Z" id="Shape"></path>
                    <g id="Group" transform="translate(0.000000, 25.294686)">
                        <path d="M60.906457,6.93345411 C53.5529801,12.4214976 42.8692053,15.3349034 33.682947,15.3349034 C20.8087748,15.3349034 9.20860927,10.5243961 0.447019868,2.5294686 C-0.245860927,1.89710145 0.379966888,1.03888889 1.20695364,1.53574879 C10.6837748,7.09154589 22.3733443,10.4566425 34.4652318,10.4566425 C42.6233444,10.4566425 51.5860927,8.7402174 59.8336093,5.21702899 C61.0629139,4.65241546 62.1134106,6.03007246 60.906457,6.93345411 Z" id="Path"></path>
                        <path d="M63.968543,3.4102657 C63.0298013,2.19070048 57.7549669,2.82306763 55.3634106,3.11666667 C54.6481788,3.20700483 54.5364238,2.57463768 55.1846026,2.10036232 C59.3865894,-0.880797105 66.2930464,-0.0225845411 67.0976821,0.971135265 C67.9023178,1.98743961 66.8741722,8.9660628 62.9403973,12.3085749 C62.3369205,12.8280193 61.7557947,12.5570048 62.0240066,11.8794686 C62.9180464,9.643599 64.9072848,4.60724638 63.968543,3.4102657 Z" id="Path"></path>
                    </g>
                </g>
            </g>
        </g>
    </g>
</svg>
